actions/scalable/project-development-new-template.svg

<svg height="22" width="22" xmlns="http://www.w3.org/2000/svg" xmlns:sodipodi="http://sodipodi.sourceforge.net/DTD/sodipodi-0.dtd" xmlns:inkscape="http://www.inkscape.org/namespaces/inkscape">
 <path d="m3 3v4 11 1h1 9v-1h-9v-11h14v6h1v-6-4h-16z" fill="#4d4d4d" transform="matrix(1 0 0 1 0 0)"/>
 <path d="m347.2 549.76-3.0655 0.24535 0.55641 3.0246-2.3411-1.9941-1.7452 2.5321-0.24536-3.0655-3.0246 0.55641 1.9941-2.3411-2.5321-1.7452 3.0655-0.24536-0.55641-3.0246 2.3411 1.9942 1.7452-2.5321 0.24536 3.0655 3.0246-0.55641-1.9941 2.3411z" fill="#4d4d4d" transform="matrix(0.5381 -0.14418 0.14418 0.5381 -247.1 -229.77)"/>
</svg>

<?xml version="1.0" encoding="UTF-8" standalone="no"?>
<!-- Created with Inkscape (http://www.inkscape.org/) -->

<svg
   xmlns:dc="http://purl.org/dc/elements/1.1/"
   xmlns:cc="http://creativecommons.org/ns#"
   xmlns:rdf="http://www.w3.org/1999/02/22-rdf-syntax-ns#"
   xmlns:svg="http://www.w3.org/2000/svg"
   xmlns="http://www.w3.org/2000/svg"
   xmlns:sodipodi="http://sodipodi.sourceforge.net/DTD/sodipodi-0.dtd"
   xmlns:inkscape="http://www.inkscape.org/namespaces/inkscape"
   width="22"
   height="22"
   id="svg3760"
   version="1.1"
   inkscape:version="0.48+devel r"
   sodipodi:docname="project-development-new-template.svg">
  <defs
     id="defs3762" />
  <sodipodi:namedview
     id="base"
     pagecolor="#ffffff"
     bordercolor="#666666"
     borderopacity="1.0"
     inkscape:pageopacity="0.0"
     inkscape:pageshadow="2"
     inkscape:zoom="23.340048"
     inkscape:cx="10.208626"
     inkscape:cy="11.177877"
     inkscape:document-units="px"
     inkscape:current-layer="layer1"
     showgrid="true"
     fit-margin-top="0"
     fit-margin-left="0"
     fit-margin-right="0"
     fit-margin-bottom="0"
     inkscape:window-width="1366"
     inkscape:window-height="666"
     inkscape:window-x="-2"
     inkscape:window-y="25"
     inkscape:window-maximized="1"
     inkscape:showpageshadow="false"
     showguides="true">
    <inkscape:grid
       type="xygrid"
       id="grid4106"
       originx="-0.99998557px"
       originy="-1.0000252px" />
    <sodipodi:guide
       position="2.00001,19.99997"
       orientation="0,18"
       id="guide4229" />
    <sodipodi:guide
       position="20.00001,19.99997"
       orientation="18,0"
       id="guide4231" />
    <sodipodi:guide
       position="20.00001,1.99997"
       orientation="0,-18"
       id="guide4233" />
    <sodipodi:guide
       position="2.00001,1.99997"
       orientation="-18,0"
       id="guide4235" />
    <sodipodi:guide
       position="19.00001,2.99997"
       orientation="0,-16"
       id="guide4241" />
    <sodipodi:guide
       position="2.9999956,18.999992"
       orientation="6,0"
       id="guide4155" />
    <sodipodi:guide
       position="18.999996,12.999992"
       orientation="-6,0"
       id="guide4167" />
    <sodipodi:guide
       position="18.999996,18.999992"
       orientation="0,-6"
       id="guide4169" />
  </sodipodi:namedview>
  <metadata
     id="metadata3765">
    <rdf:RDF>
      <cc:Work
         rdf:about="">
        <dc:format>image/svg+xml</dc:format>
        <dc:type
           rdf:resource="http://purl.org/dc/dcmitype/StillImage" />
        <dc:title />
      </cc:Work>
    </rdf:RDF>
  </metadata>
  <g
     inkscape:label="Capa 1"
     inkscape:groupmode="layer"
     id="layer1"
     transform="translate(-551.28571,-607.64788)">
    <path
       style="opacity:1;fill:#666666;fill-opacity:1;stroke:none;stroke-width:2.79999995;stroke-miterlimit:4;stroke-dasharray:none;stroke-opacity:0.55026455"
       d="M 3 3 L 3 7 L 3 18 L 3 19 L 4 19 L 13 19 L 13 18 L 4 18 L 4 7 L 18 7 L 18 13 L 19 13 L 19 7 L 19 3 L 3 3 z "
       transform="translate(551.28571,607.64788)"
       id="rect4145" />
    <path
       transform="matrix(0.53810378,-0.14418447,0.14418447,0.53810378,304.18891,377.88321)"
       inkscape:transform-center-y="-0.47547164"
       inkscape:transform-center-x="-0.2745226"
       d="m 347.20167,549.75597 -3.0655,0.24535 0.55641,3.02455 -2.34113,-1.99414 -1.74523,2.53212 -0.24536,-3.0655 -3.02455,0.55641 1.99414,-2.34112 -2.53212,-1.74524 3.0655,-0.24536 -0.55641,-3.02455 2.34113,1.99415 1.74523,-2.53213 0.24536,3.0655 3.02455,-0.55641 -1.99414,2.34113 z"
       inkscape:randomized="0"
       inkscape:rounded="0"
       inkscape:flatsided="false"
       sodipodi:arg2="0.65449847"
       sodipodi:arg1="0.26179939"
       sodipodi:r2="2.6925824"
       sodipodi:r1="5.3851647"
       sodipodi:cy="548.36218"
       sodipodi:cx="342"
       sodipodi:sides="8"
       id="path4160-0"
       style="opacity:1;fill:#666666;fill-opacity:1;stroke:none;stroke-width:2.79999995;stroke-miterlimit:4;stroke-dasharray:none;stroke-opacity:0.55026455"
       sodipodi:type="star" />
  </g>
</svg>
